common/src/main/resources/icons/nodes/advice.svg

<svg xmlns="http://www.w3.org/2000/svg" width="16" height="16" fill="#4DD0E1" data-big="true" viewBox="0 0 24 24"><path d="M7.5 5.6 5 7l1.4-2.5L5 2l2.5 1.4L10 2 8.6 4.5 10 7zm12 9.8L22 14l-1.4 2.5L22 19l-2.5-1.4L17 19l1.4-2.5L17 14zM22 2l-1.4 2.5L22 7l-2.5-1.4L17 7l1.4-2.5L17 2l2.5 1.4zm-8.66 10.78 2.44-2.44-2.12-2.12-2.44 2.44zm1.03-5.49 2.34 2.34c.39.37.39 1.02 0 1.41L5.04 22.71c-.39.39-1.04.39-1.41 0l-2.34-2.34c-.39-.37-.39-1.02 0-1.41L12.96 7.29c.39-.39 1.04-.39 1.41 0"/></svg>

<!--
  - The MIT License (MIT)
  -
  - Copyright (c) 2015-2024 Elior "Mallowigi" Boukhobza
  -
  - Permission is hereby granted, free of charge, to any person obtaining a copy
  - of this software and associated documentation files (the "Software"), to deal
  - in the Software without restriction, including without limitation the rights
  - to use, copy, modify, merge, publish, distribute, sublicense, and/or sell
  - copies of the Software, and to permit persons to whom the Software is
  - furnished to do so, subject to the following conditions:
  -
  - The above copyright notice and this permission notice shall be included in all
  - copies or substantial portions of the Software.
  -
  - THE SOFTWARE IS PROVIDED "AS IS", WITHOUT WARRANTY OF ANY KIND, EXPRESS OR
  - IMPLIED, INCLUDING BUT NOT LIMITED TO THE WARRANTIES OF MERCHANTABILITY,
  - FITNESS FOR A PARTICULAR PURPOSE AND NONINFRINGEMENT. IN NO EVENT SHALL THE
  - AUTHORS OR COPYRIGHT HOLDERS BE LIABLE FOR ANY CLAIM, DAMAGES OR OTHER
  - LIABILITY, WHETHER IN AN ACTION OF CONTRACT, TORT OR OTHERWISE, ARISING FROM,
  - OUT OF OR IN CONNECTION WITH THE SOFTWARE OR THE USE OR OTHER DEALINGS IN THE
  - SOFTWARE.
  -->


<svg data-big="true" xmlns="http://www.w3.org/2000/svg" version="1.1" width="16px" height="16px" fill="#4DD0E1"
     viewBox="0 0 24 24">
  <path
    d="M7.5,5.6L5,7L6.4,4.5L5,2L7.5,3.4L10,2L8.6,4.5L10,7L7.5,5.6M19.5,15.4L22,14L20.6,16.5L22,19L19.5,17.6L17,19L18.4,16.5L17,14L19.5,15.4M22,2L20.6,4.5L22,7L19.5,5.6L17,7L18.4,4.5L17,2L19.5,3.4L22,2M13.34,12.78L15.78,10.34L13.66,8.22L11.22,10.66L13.34,12.78M14.37,7.29L16.71,9.63C17.1,10 17.1,10.65 16.71,11.04L5.04,22.71C4.65,23.1 4,23.1 3.63,22.71L1.29,20.37C0.9,20 0.9,19.35 1.29,18.96L12.96,7.29C13.35,6.9 14,6.9 14.37,7.29Z"/>
</svg>
